X:486
T:Lord Glenorchy
R:Strathspey
B:The Athole Collection
M:C
L:1/8
K:F
c|~f>ga>g f<d d>f|c<A f>A G>F G<A|~f>ga>g f<d d>f|c<A f>A F2F:|
A/B/|:c<F c>A c<F A<f|f>c d/c/B/A/ d<G G>f|1 c<F c>A c<FA<f|
F<d c>A F2F:|2 c<F c>A f<ag<a|f<b a>g ~f2f||

